svgs/thin/trash-can-undo.svg

<svg xmlns="http://www.w3.org/2000/svg" viewBox="0 0 448 512"><!--! Font Awesome Pro 6.5.1 by @fontawesome - https://fontawesome.com License - https://fontawesome.com/license (Commercial License) Copyright 2023 Fonticons, Inc. --><path d="M157.4 27.3L134.4 64H313.6l-23-36.7c-4.4-7-12.1-11.3-20.4-11.3H177.7c-8.3 0-16 4.3-20.4 11.3zM115.6 64l28.2-45.2C151.1 7.1 163.9 0 177.7 0h92.5c13.8 0 26.6 7.1 33.9 18.8L332.4 64H440c4.4 0 8 3.6 8 8s-3.6 8-8 8H8c-4.4 0-8-3.6-8-8s3.6-8 8-8H115.6zM40 112c4.4 0 8 3.6 8 8V440c0 30.9 25.1 56 56 56H344c30.9 0 56-25.1 56-56V120c0-4.4 3.6-8 8-8s8 3.6 8 8V440c0 39.8-32.2 72-72 72H104c-39.8 0-72-32.2-72-72V120c0-4.4 3.6-8 8-8zm173.9 74.6c3 3.3 2.7 8.3-.5 11.3L140.7 264H248c39.8 0 72 32.2 72 72v40c0 4.4-3.6 8-8 8s-8-3.6-8-8V336c0-30.9-25.1-56-56-56H140.7l72.7 66.1c3.3 3 3.5 8 .5 11.3s-8 3.5-11.3 .5l-88-80c-1.7-1.5-2.6-3.7-2.6-5.9s1-4.4 2.6-5.9l88-80c3.3-3 8.3-2.7 11.3 .5z"/></svg>

<svg xmlns="http://www.w3.org/2000/svg" viewBox="0 0 448 512"><!--! Font Awesome Pro 6.1.1 by @fontawesome - https://fontawesome.com License - https://fontawesome.com/license (Commercial License) Copyright 2022 Fonticons, Inc. --><path d="M115.6 64L143.8 18.8C151.1 7.105 163.9 0 177.7 0H270.3C284.1 0 296.9 7.105 304.2 18.8L332.4 64H440C444.4 64 448 67.58 448 72C448 76.42 444.4 80 440 80H8C3.582 80 0 76.42 0 72C0 67.58 3.582 64 8 64H115.6zM134.4 64H313.6L290.6 27.28C286.2 20.26 278.5 16 270.3 16H177.7C169.5 16 161.8 20.26 157.4 27.28L134.4 64zM40 112C44.42 112 48 115.6 48 120V440C48 470.9 73.07 496 104 496H344C374.9 496 400 470.9 400 440V120C400 115.6 403.6 112 408 112C412.4 112 416 115.6 416 120V440C416 479.8 383.8 512 344 512H104C64.24 512 32 479.8 32 440V120C32 115.6 35.58 112 40 112zM213.9 186.6C216.9 189.9 216.7 194.9 213.4 197.9L140.7 263.1H248C287.8 263.1 320 296.2 320 336V376C320 380.4 316.4 384 312 384C307.6 384 304 380.4 304 376V336C304 305.1 278.9 279.1 248 279.1H140.7L213.4 346.1C216.7 349.1 216.9 354.1 213.9 357.4C210.9 360.6 205.9 360.9 202.6 357.9L114.6 277.9C112.1 276.4 112 274.3 112 271.1C112 269.7 112.1 267.6 114.6 266.1L202.6 186.1C205.9 183.1 210.9 183.3 213.9 186.6V186.6z"/></svg>
